X:1
T:Title
%%score { 1 | 2 }
L:1/8
Q:1/4=100
M:4/4
K:G
V:1 treble nm="Grand Piano"
V:2 bass 
V:1
 B2 B>B A2 [G,DG]2 | [B,D]6 z2 | F2 F>G A2 D2 | G6 z2 | B2 B>B [DFA]2 [DG]2 | [EGc]6 [CEA]2 | %6
w: D.~B.~Towner * * * *||||||
 [B,DG]3 [B,DG] [CDA]2 [A,DF]2 | [B,DG]6 z2 |] %8
w: ||
V:2
 [G,D]2 [G,D]>[G,D] [D,F,D]2 B,,2 | G,,6 z2 | [D,A,D]2 [D,A,D]>[D,B,D] [F,CD]2 [A,C]2 | %3
 [G,B,D]6 z2 | [G,DG]2 [G,DG]>[G,DG][K:bass] D,2 B,,2 | A,,6 C,2 | D,3 D, D,2 D,2 | G,,6 z2 |] %8

